svgs/sharp-light/card-club.svg

<svg xmlns="http://www.w3.org/2000/svg" viewBox="0 0 384 512"><!--! Font Awesome Pro 6.6.0 by @fontawesome - https://fontawesome.com License - https://fontawesome.com/license (Commercial License) Copyright 2024 Fonticons, Inc. --><path d="M352 32l0 448L32 480 32 32l320 0zM32 0L0 0 0 32 0 480l0 32 32 0 320 0 32 0 0-32 0-448 0-32L352 0 32 0zM208 331.9c7.5 2.7 15.6 4.1 24 4.1c39.8 0 72-32.2 72-72c0-28.3-16.3-52.7-40-64.5c-.3-39.5-32.4-71.5-72-71.5s-71.7 32-72 71.5C96.3 211.3 80 235.7 80 264c0 39.8 32.2 72 72 72c8.4 0 16.5-1.4 24-4.1l0 20.1-16 0-16 0 0 32 16 0 16 0 32 0 16 0 16 0 0-32-16 0-16 0 0-20.1zM152 200c0-22.1 17.9-40 40-40s40 17.9 40 40c0 2.5-.2 4.9-.6 7.2l-2.6 14.3 14 3.9c16.9 4.7 29.2 20.2 29.2 38.5c0 22.1-17.9 40-40 40c-11.2 0-21.3-4.6-28.6-12L192 280.3 180.6 292c-7.3 7.4-17.4 12-28.6 12c-22.1 0-40-17.9-40-40c0-18.3 12.3-33.8 29.2-38.5l14-3.9-2.6-14.3c-.4-2.3-.6-4.7-.6-7.2z"/></svg>

<svg xmlns="http://www.w3.org/2000/svg" viewBox="0 0 384 512"><!--! Font Awesome Pro 6.4.2 by @fontawesome - https://fontawesome.com License - https://fontawesome.com/license (Commercial License) Copyright 2023 Fonticons, Inc. --><path d="M352 32V480H32V32H352zM32 0H0V32 480v32H32 352h32V480 32 0H352 32zM208 331.9c7.5 2.7 15.6 4.1 24 4.1c39.8 0 72-32.2 72-72c0-28.3-16.3-52.7-40-64.5c-.3-39.5-32.4-71.5-72-71.5s-71.7 32-72 71.5C96.3 211.3 80 235.7 80 264c0 39.8 32.2 72 72 72c8.4 0 16.5-1.4 24-4.1V352H160 144v32h16 16 32 16 16V352H224 208V331.9zM152 200c0-22.1 17.9-40 40-40s40 17.9 40 40c0 2.5-.2 4.9-.6 7.2l-2.6 14.3 14 3.9c16.9 4.7 29.2 20.2 29.2 38.5c0 22.1-17.9 40-40 40c-11.2 0-21.3-4.6-28.6-12L192 280.3 180.6 292c-7.3 7.4-17.4 12-28.6 12c-22.1 0-40-17.9-40-40c0-18.3 12.3-33.8 29.2-38.5l14-3.9-2.6-14.3c-.4-2.3-.6-4.7-.6-7.2z"/></svg>
